!!!COM: Music21
!!!OTL: reel_Men-They-Stand-And-Stay--The
!!!OMV: reel_Men-They-Stand-And-Stay--The
**kern
*clefG2
*k[b-]
*d:
*M4/4
=1
4a
=
4.a
16d
4d
4c
[16f
=
*M7/8
8.f]
4.g
16a
4a
=
*M4/4
4.g
16f
4d
[8.d
16ryy
16d_
=
*M15/16
16d]
[2d
8.dL]
8c
8cJ
=
*M4/4
4.f
16fKL
8f
8gJ
4a
[16cc
!!linebreak:original
=
*M7/8
8.ccL]
16ccJk
4.dd
8ccL
8ccJ
=
*M4/4
4cc
4a
8gL
8a
[8b-J
=
2.a
8b-]
8aL
8gJ
=
4.f
16fKL
8f
8g
[8.aJ
16ryy
[16cc
=
*M7/8
8.cc]
16aLL]
16ccJJ
4.dd
8ccL
8ccJ
=
*M4/4
4cc
4a
4g
[8f
!!linebreak:original
=
2.g
8f]
8aL
8gJ
=
4f
8dL
8dJ
4d
[8c
=
*M15/16
4.f
8cL]
16gJk
4a
8aL
8aJ
=
*M4/4
4g
4f
4.d
16d
16ryy
=
2.d
8aL
8aJ
=||
4a
4d
4d
8aL
[8aJ
!!linebreak:original
=
4a]
4cc
8ccL
8bnJ
8b-XL
8b-J
=
4bn
4a
4a
8gL
8aJ
=
2.a
8aL
8aJ
=
4a
8bn
4cc
8b-X
8ccL
8b-J
=
4dd
16d
4.d
8dL
8eJ
16ryy
=
4f
8fL
8gJ
4e
8cL
8dJ
=
2.d
8r
8ryy
=
*-
